X: 38428
T: Stargazers, The
R: reel
M: 4/4
K: Gdorian
G4 G2FG|Bcc2 c2Bc|dfc2- cFcF|c2cd cBAF|
G4 G2FG|Bcc2 c2Bc|dFcF cdcc-|cBAF G2z2:|
ABcf d4-|df (3dcB ABcd|F2c2 cdcc-|c2BA BAFB|
ABcf d4-|df (3dcB ABcd|F2c2 cdcc-|cBAF G2z2|
ABcf d4-|df (3dcB ABcd|F2c2 cdcc-|c2BA BAGF|
G4 G2FG|Bcc2 c2Bc|dFcF cdcc-|cBAF G2z2||

